X: 14
T: Loier mi fault
N: Derived from Jap3014-Loier_mi_fault.krn
C: Jean Japart
%%abc-version 2.0
%%abcx-abcm2ps-target-version 5.9.1 (29 Sep 2008)
%%abc-creator hum2abc beta
%%abcx-conversion-date 2019/02/16 20:40:05
%%abc-edited-by Jesse Rodin
%%abc-edited-by Chris Gage 09-18-2013
%%abcx-initial-encoding-date 2013/10/24/
%%humdrum-veritas 4225350445
%%humdrum-veritas-data 2079613005
%%linebreak <none>
%%barnumbers 0
L: 1/4
M: 2/1
Q: 1/2=120
%%staves [1 2 3 4]
V: 1 clef=treble
V: 2 clef=treble-8
V: 3 clef=treble-8
V: 4 clef=bass
K: F
[V:1] z8 | 
[V:2] d4d4- | 
[V:3] z8 | 
[V:4] D,8 | 
[V:1] z8 | 
[V:2] d4e4 | 
[V:3] z8 | 
[V:4] B,,4C,4 | 
[V:1] z8 | 
[V:2] d8 | 
[V:3] z8 | 
[V:4] D,6C,B,, | 
[V:1] z8 | 
[V:2] e4g4- | 
[V:3] G4G4- | 
[V:4] C,2B,,A,,G,,4 | 
[V:1] z8 | 
[V:2] g2^fe^f4 | 
[V:3] G4A4 | 
[V:4] z4D,4 | 
[V:1] z8 | 
[V:2] g8 | 
[V:3] G8 | 
[V:4] E,2G,4F,E, | 
[V:1] z8 | 
[V:2] z4g4 | 
[V:3] A4c4- | 
[V:4] F,4E,4 | 
[V:1] z8 | 
[V:2] f6ed | 
[V:3] c2=BA=B4 | 
[V:4] D,8 | 
[V:1] G4G4- | 
[V:2] e6dc | 
[V:3] c8 | 
[V:4] C,8 | 
[V:1] G4A4 | 
[V:2] e4f4 | 
[V:3] z4d4 | 
[V:4] G,4F,4 | 
[V:1] G8 | 
[V:2] g3fe4 | 
[V:3] e2g4fe | 
[V:4] E,4C,4 | 
[V:1] A4c4- | 
[V:2] d4G2g2- | 
[V:3] f4e4 | 
[V:4] z4C,4 | 
[V:1] c2=BA=B4 | 
[V:2] g4g4 | 
[V:3] d8 | 
[V:4] G,4G,4 | 
[V:1] c8 | 
[V:2] e6f2 | 
[V:3] c8 | 
[V:4] A,8 | 
[V:1] z8 | 
[V:2] g4a4- | 
[V:3] z8 | 
[V:4] G,4F,4- | 
[V:1] z8 | 
[V:2] a4g4 | 
[V:3] z4c4 | 
[V:4] F,4E,4 | 
[V:1] z8 | 
[V:2] f8 | 
[V:3] d8 | 
[V:4] D,6C,B,, | 
[V:1] c4d4- | 
[V:2] e4d4- | 
[V:3] c4B4- | 
[V:4] C,3B,,G,,4 | 
[V:1] d4c4 | 
[V:2] d2g4^f2 | 
[V:3] B4A4 | 
[V:4] z8 | 
[V:1] B8 | 
[V:2] g4d4- | 
[V:3] G2A2B2G2- | 
[V:4] G,,8 | 
[V:1] A4G4- | 
[V:2] d4c4 | 
[V:3] G2^F2G4 | 
[V:4] D,4E,4 | 
[V:1] G2^FEF4 | 
[V:2] d8 | 
[V:3] A8 | 
[V:4] D,8 | 
[V:1] G8 :|]|:  
[V:2] d8 :|]|:  
[V:3] G8 :|]|:  
[V:4] G,,8 :|]|:  
[V:1] z8 | 
[V:2] z8 | 
[V:3] B4A4 | 
[V:4] G,,4C,4- | 
[V:1] z8 | 
[V:2] z8 | 
[V:3] G2c4BA | 
[V:4] C,4A,,4 | 
[V:1] z8 | 
[V:2] z8 | 
[V:3] B6AG | 
[V:4] D,6C,B,, | 
[V:1] z8 | 
[V:2] z8 | 
[V:3] A4G4- | 
[V:4] C,4B,,4 | 
[V:1] z8 | 
[V:2] z8 | 
[V:3] G2^FE^F4 | 
[V:4] A,,4A,,4 | 
[V:1] B4A4 | 
[V:2] z8 | 
[V:3] G4c4- | 
[V:4] G,,4A,,4 | 
[V:1] G2c4BA | 
[V:2] g4g4- | 
[V:3] c8 | 
[V:4] C,8 | 
[V:1] B6AG | 
[V:2] g2fed3e | 
[V:3] d6cB | 
[V:4] G,,4G,4 | 
[V:1] A4G4- | 
[V:2] f3ec4 | 
[V:3] c4G4 | 
[V:4] F,4E,4 | 
[V:1] G6^F6 | 
[V:2] [M:3/1]d8d4 | 
[V:3] A12 | 
[V:4] D,12 | 
[V:1] G12 | 
[V:2] d8e4 | 
[V:3] G12 | 
[V:4] [M:3/1]G,,4B,,4C,4 | 
[V:1] [M:3/1]z12 | 
[V:2] d8e4 | 
[V:3] [M:3/1]z4z4G4 | 
[V:4] D,6C,B,,C,2B,,A,, | 
[V:1] z12 | 
[V:2] g8f4 | 
[V:3] G8A4 | 
[V:4] G,,8D,4 | 
[V:1] z12 | 
[V:2] g8e4 | 
[V:3] G8A4 | 
[V:4] E,8C,4 | 
[V:1] z12 | 
[V:2] c4d8 | 
[V:3] c6=BA=B4 | 
[V:4] E,4D,8 | 
[V:1] z4z4G4 | 
[V:2] e12 | 
[V:3] c6d2e2f2 | 
[V:4] C,8C,4 | 
[V:1] G8A4 | 
[V:2] z4z4d4 | 
[V:3] g6e2f4 | 
[V:4] G,,8D,4 | 
[V:1] G8A4 | 
[V:2] B4c4d4 | 
[V:3] g6fef4 | 
[V:4] E,8D,4 | 
[V:1] c6=B2=B2A=B | 
[V:2] g8g4 | 
[V:3] e4d8 | 
[V:4] C,4G,8 | 
[V:1] c12 | 
[V:2] e4a8 | 
[V:3] c8c4 | 
[V:4] A,8A,4 | 
[V:1] z4z4c4 | 
[V:2] g8f4 | 
[V:3] d8c4 | 
[V:4] B,8A,4 | 
[V:1] d8c4 | 
[V:2] g4d2e2f4 | 
[V:3] B8A4 | 
[V:4] G,8z4 | 
[V:1] B8A4 | 
[V:2] g4d8 | 
[V:3] G8F4 | 
[V:4] G,,8D,4 | 
[V:1] G6^FEF4 | 
[V:2] c4d8 | 
[V:3] G4A8 | 
[V:4] E,4D,8 | 
[V:1] G12 | 
[V:2] d4d4e4 | 
[V:3] G12 | 
[V:4] G,,4B,,4C,4 | 
[V:1] z12 | 
[V:2] d8e4 | 
[V:3] z4z4G4 | 
[V:4] D,6C,B,,C,2B,,A,, | 
[V:1] z12 | 
[V:2] g6fef4 | 
[V:3] G8A4 | 
[V:4] G,,8D,4 | 
[V:1] z12 | 
[V:2] g8c4 | 
[V:3] G8A4 | 
[V:4] E,8C,4 | 
[V:1] z12 | 
[V:2] g4f8 | 
[V:3] c8=B4 | 
[V:4] E,4D,8 | 
[V:1] z4z4G4 | 
[V:2] e8e4 | 
[V:3] c12 | 
[V:4] C,8C,4 | 
[V:1] G8A4 | 
[V:2] g6fef4 | 
[V:3] z12 | 
[V:4] G,,8D,4 | 
[V:1] G8A4 | 
[V:2] g6fef4 | 
[V:3] z12 | 
[V:4] E,8D,4 | 
[V:1] c6=BA=B4 | 
[V:2] e4d8 | 
[V:3] z12 | 
[V:4] C,4G,8 | 
[V:1] c12 | 
[V:2] c6B2A4 | 
[V:3] z4z4c4 | 
[V:4] C,8C,4 | 
[V:1] z4z4c4 | 
[V:2] G6F2F4 | 
[V:3] d8c4 | 
[V:4] B,,4G,,4A,,4 | 
[V:1] d8c4 | 
[V:2] G4d2e2f4 | 
[V:3] B8A4 | 
[V:4] G,,8z4 | 
[V:1] B8A4 | 
[V:2] g4d8 | 
[V:3] G6FEF4 | 
[V:4] G,,8D,4 | 
[V:1] G8^F4 | 
[V:2] c4d8 | 
[V:3] G4A8 | 
[V:4] E,4D,8 | 
[V:1] G8B4 | 
[V:2] d8e4 | 
[V:3] G8G4 | 
[V:4] G,,8G,4 | 
[V:1] A6B2c2BA | 
[V:2] f4e4f4 | 
[V:3] c6c4z2 | 
[V:4] F,4A,8 | 
[V:1] B6AGA3G | 
[V:2] g6fef3e | 
[V:3] d6cBc4 | 
[V:4] G,8F,4 | 
[V:1] G6^FEF4 | 
[V:2] c4d8 | 
[V:3] G4A8 | 
[V:4] E,4D,8 | 
[V:1] G12 |]  
[V:2] d12 |]  
[V:3] G12 |]  
[V:4] G,,12 |]  



